X:1
T:Barlow Knife [1]
M:C|
L:1/8
S:Kuntz – Ragged But Right
K:G
ef|g2 gg fgaf|g2 g2 d2 (g2|g2) bg f2 af|efge d2 ef|g2 gg fgaf g2 g2 d2 (g2|
g2) bg f2 af|efge d2 (3Bcd||
|:e2 d2 BABd|e2 dB G2 g2|efed BAGB|A2 G2 G2 (e2|e)fed BABd|e2 dB G2g2|
efed BAGB|A2 G2 G2 (A2|A2) Ad BA G2|A2 d2 G2 (A2|A2) Ad BAGB|
A2 G2 G2 (A2|A2) Ad BA G2|A2 d2 G2 (A2|A2) Ad BAGB|A2 G2 G2||
BARLOW KNIFE [2]. Old-Time, Breakdown. G Major. Standard tuning. AB. No apparent relationship to version #1. Source for notated version: Ralph Troxell [Phillips]. Phillips (Traditional American Fiddle Tunes), vol. 1, 1994; pg. 19.
